!!!COM: Bach, Johann Sebastian
!!!OTL@@DE: 281. Wo soll ich fliehen hin
!!!OTL@EN: Whither am I to flee?
!!!SCA: BWV 89.6
**kern	**kern	**kern	**kern	**harm	**root
*staff2	*staff2	*staff1	*staff1	*staff2	*
*Iorgan	*Iorgan	*Iorgan	*Iorgan	*Iorgan	*Iorgan
!bass	!tenor	!alto	!sprno	!	!
*clefF4	*clefF4	*clefG2	*clefG2	*	*
*k[b-e-]	*k[b-e-]	*k[b-e-]	*k[b-e-]	*k[b-e-]	*k[b-e-]
*g:	*g:	*g:	*g:	*g:	*g:
*met(C)	*met(C)	*met(C)	*met(C)	*met(C)	*met(C)
*M4/4	*M4/4	*M4/4	*M4/4	*M4/4	*M4/4
*MM60	*MM60	*MM60	*MM60	*MM60	*MM60
4GG\	4B-/	4d\	4g/	i	4GG
=1	=1	=1	=1	=1	=1
4G\	4B-/	4d\	4g/	i	4GG
4F#\	4A/	4d\	4a/	V	4DD
4G\	8G/L	4d\	4b-/	i	4GG
.	8B-/J	.	.	.	.
4E-\	4e-/	4g\	4cc/	ivb	4CC
=2	=2	=2	=2	=2	=2
2.D;\	2.A;/	2.f#;\	2.dd;/	V;	2.DD;
4C\	4A/	4f#\	4dd/	V7c	4DD
=3	=3	=3	=3	=3	=3
4BB-\	4B-/	4g\	4dd/	ib	4GG
4AA\	4c/	8g\L	4cc/	viiob	4FF#
.	.	8f#\J	.	.	.
4GG\	4d/	4g\	4b-/	i	4GG
4C\	4e-/	4a\	4cc/	iiob	4AA
=4	=4	=4	=4	=4	=4
2.D;\	2.d;/	2.f;\	2.a#;/	V;	2.DD;
*B-:	*B-:	*B-:	*B-:	*B-:	*B-:
4D\	4d/	4f\	4a#/	V/VI	4DD
=5	=5	=5	=5	=5	=5
4G\	4d/	4g\	4b-/	vi	4GG
4F\	4f/	4a\	4cc/	V	4FF
8B-\L	4f/	4b-\	4dd/	I	4BB-
8A\	.	.	.	.	.
8G\	4g/	4b-\	4dd/	vi	4GG
8F\J	.	.	.	.	.
=6	=6	=6	=6	=6	=6
4E-\	4g/	4b-\	2cc/	iv7b	4EE-
4F\	4f/	4a\	.	V	4FF
4BB-;\	4f;/	4b-;\	4dd;/	I;	4BB-;
4F#\	4d/	4a\	4dd/	Vb/VI	4DD
=7	=7	=7	=7	=7	=7
!!linebreak: 2
(4G\	4d/	4g\	4b-/	vi	4GG
8F\L	4f/	8a\L	4cc/	V	4FF
8E-\J)	.	8g\J	.	.	.
8D\L	4B-/	4f\	4dd/	Ib	4BB-
8C\	.	.	.	.	.
8BB-\	4B-/	4f\	4dd/	I	4BB-
8D\J	.	.	.	.	.
=8	=8	=8	=8	=8	=8
8E-\L	4B-/	4g\	2cc/	ii7	4CC
8C\J	.	.	.	.	.
4F\	4A/	4f\	.	V	4FF
4BB-;\	4d;/	4f;\	4b-;/	I;	4BB-;
4B-\	4f/	4b-\	4dd/	I	4BB-
=9	=9	=9	=9	=9	=9
4A\	4f/	4cc\	4ff/	Vb	4FF
4B-\	8f/L	4b-\	4dd/	I	4BB-
.	8g/J	.	.	.	.
4F#\	8a/L	4a\	4dd/	Vb/VI	4DD
.	8A/J	.	.	.	.
4G\	4B-/	4g\	4dd/	vi	4GG
=10	=10	=10	=10	=10	=10
4En\	4B-/	4g\	2cc/	V7b/V	4CC
4C\	8A/L	8f\L	.	Vc	8FF
.	8G/J	8en\J	.	V/V	8CC
4F;\	4A;/	4f;\	4cc;/	V;	4FF;
*g:	*g:	*g:	*g:	*g:	*g:
4E-\	4G/	4g\	4cc/	ivb	4CC
=11	=11	=11	=11	=11	=11
8D\L	4A/	4f#\	4dd/	V	4DD
8C\J	.	.	.	.	.
8BB-\L	4d/	4f#\	4cc/	V7c	4DD
8AA\J	.	.	.	.	.
8GG\L	4d/	4g\	4b-/	i	4GG
8F\J	.	.	.	.	.
8E-\L	8c/L	4g\	8cc/L	ivb	8CC
8D\J	8d/J	.	8b-/J	ic	8GG
=12	=12	=12	=12	=12	=12
4C\	4e-/	4g\	2a/	iio7	4AA
4D\	8d/L	4f#\	.	V7	4DD
.	8c/J	.	.	.	.
4GG;\	4Bn;/	4d;\	4g;/	I;	4GG;
==	==	==	==	==	==
*-	*-	*-	*-	*-	*-
!!!ENC: Craig Stuart Sapp
!!!END: 2004/12/06/
!!chor2scor: -l 2 -s 0.6 -o %b.pmx
